X:1
T:Title
%%score 1 2
L:1/8
Q:1/4=90
M:2/4
K:Eb
V:1 treble nm="Strings 1, Soprano"
V:2 bass nm="Strings 1, Bass"
V:1
 z2 E[EG] | [GB][GB] [Ac][GB] | [GB][EG] [B,E][B,F] | [EG][EB] [DF][DG] | E2 E[EG] | %5
w: 1.~Tell~ me,~|pil grim,~ trav 'ling~|home ward,~ Are~ you~|ho ly,~ free~ from~|sin?~ Are~ you~|
 [GB][GB] [Ac][GB] | [GB][EG] [B,E][B,F] | [EG][EB] [DF][EG] | E2 z2 | [GB]2 [GB]2 | [Ge]3 [GB] | %11
w: flash ing~ light~ a|round~ you?~ Are~ you~|wit ness ing~ for~|Him?~|||
 [Ac][Ac] [ce][Ac] | [Ac] [GB]2 [EB] | E[EG] [GB][GB] | [Ac][EG] [EB][Q:1/4=90]B,[Q:1/4=12] | %15
w: ||||
 [B,E][B,E] [EG][EG] | [B,F][B,E][Q:1/4=90] z2[Q:1/4=12] |] %17
w: ||
V:2
 z2 [E,G,][E,B,] | [E,E][E,E] [E,E][E,E] | [E,B,][E,B,] [E,G,][E,A,] | %3
 [E,B,][G,,B,] [B,,A,][B,,B,] | [E,G,]2 [E,G,][E,B,] | [E,E][E,E] [E,E][E,E] | %6
 [E,B,][E,B,] [E,G,][E,A,] | [E,B,][G,,B,] [B,,A,][B,,B,] | [E,G,]2 z2 | [E,E]2 [E,E]2 | %10
 [E,B,]3 [E,E] | [A,E][A,E] [A,E][A,E] | [E,E] [E,E]2 [E,G,] | [E,G,][E,B,] [E,E][E,E] | %14
 [E,E][E,B,] [E,G,][E,G,] | [B,,G,][B,,G,] [B,,B,][B,,B,] | [E,A,][E,G,] z2 |] %17

